X:89
T:Old Man Dillon                                                                                    
R:jig                                                                                               
D:Terry Bingham                                                                                     
Z:id:hn-jig-116                                                                                     
M:6/8                                                                                               
K:ADor                                                                                              
EAA ABd|edB c2A|BGG DGG|Bdc BAG|                                                                    
EAA ABd|ede a2g|edc Bcd|1 ecA A2G:|2 ecA A2a||                                                      
gef g2a|gef ged|BGG DGG|Bdc BAG|                                                                    
|1 gef g2a|gef ged|edc Bcd| ecA A2a:|                                                               
|2 EAA ABd|ede a2g|edc Bcd|ecA A2G||
